icons/tokens/0x123964EbE096A920dae00Fb795FFBfA0c9Ff4675/logo.svg

<svg width="32" height="32" viewBox="0 0 32 32" fill="none" xmlns="http://www.w3.org/2000/svg">
<path fill-rule="evenodd" clip-rule="evenodd" d="M32 15.9999C32 13.9059 31.5834 11.8118 30.7821 9.87706C29.9805 7.94234 28.7942 6.16698 27.3136 4.68634C25.833 3.20538 24.0576 2.01946 22.1229 1.21786C20.1882 0.416579 18.0941 -6.10352e-05 16 -6.10352e-05C13.9059 -6.10352e-05 11.8115 0.416579 9.8768 1.21786C7.94208 2.01946 6.16704 3.20538 4.68608 4.68634C3.20544 6.16698 2.0192 7.94234 1.21792 9.87706C0.41632 11.8118 0 13.9059 0 15.9999C0 18.094 0.41632 20.1881 1.21792 22.1228C2.0192 24.0575 3.20544 25.8329 4.68608 27.3139C6.16704 28.7945 7.94208 29.9807 9.8768 30.782C11.8115 31.5833 13.9059 31.9999 16 31.9999C18.0941 31.9999 20.1882 31.5833 22.1229 30.782C24.0576 29.9807 25.833 28.7945 27.3136 27.3139C28.7942 25.8329 29.9805 24.0575 30.7821 22.1228C31.5834 20.1881 32 18.094 32 15.9999Z" fill="white"/>
<path fill-rule="evenodd" clip-rule="evenodd" d="M11.8547 3.38361C13.3453 2.89369 14.9382 2.66969 16.5162 2.73017C18.0944 2.79065 19.6579 3.13593 21.113 3.74393C22.5683 4.35193 23.9152 5.22297 25.0675 6.29753C26.5917 7.71929 27.775 9.49753 28.4848 11.4867C29.1949 13.4761 29.4314 15.6764 29.1574 17.7711C28.8838 19.8659 28.0998 21.8553 26.9139 23.566C25.728 25.2767 24.1398 26.7084 22.2746 27.7004C20.4093 28.6921 18.2662 29.2438 16.1539 29.2758C14.0416 29.3078 11.9597 28.8204 10.095 27.895C8.23073 26.9695 6.58337 25.6063 5.33249 23.9036C4.08161 22.2009 3.22721 20.1587 2.88801 18.0748C2.54881 15.9907 2.72481 13.8646 3.37473 11.8812C3.86593 10.3817 4.62817 8.96409 5.6048 7.73561H4.12033V5.28185H9.93696V10.7135H7.48321V9.22937C6.68321 10.2355 6.05857 11.3967 5.65633 12.6255C5.12417 14.2511 4.98081 15.9951 5.25633 17.6969C5.59873 19.8137 6.58881 21.8649 8.06657 23.4457C9.83425 25.3363 12.2995 26.5542 14.8659 26.8207C17.432 27.0873 20.0992 26.4028 22.2173 24.9286C24.3354 23.4543 25.905 21.1903 26.5421 18.6899C27.1792 16.1894 26.8838 13.4524 25.735 11.142C24.5862 8.83161 22.5837 6.94841 20.1891 5.95897C17.7946 4.96921 15.0077 4.87385 12.6038 5.66361L11.8547 3.38361Z" fill="url(#paint0_linear)"/>
<path fill-rule="evenodd" clip-rule="evenodd" d="M20.3661 16C20.3661 13.5909 18.4091 11.6339 16 11.6339C13.5909 11.6339 11.6339 13.5909 11.6339 16C11.6339 18.4091 13.5909 20.3661 16 20.3661C18.4091 20.3661 20.3661 18.4091 20.3661 16Z" fill="black"/>
<path fill-rule="evenodd" clip-rule="evenodd" d="M17.9251 15.3781C18.0118 14.7968 17.5698 14.4848 16.965 14.2757L17.1611 13.489L16.6821 13.3696L16.4909 14.1359C16.3651 14.1045 16.2358 14.0747 16.1072 14.0456L16.299 13.2746L15.8208 13.1549L15.6238 13.9419L15.5402 13.9224L15.5402 13.9224C15.4651 13.9049 15.3909 13.8877 15.3182 13.8699L15.3189 13.8671L14.6579 13.7023L14.5307 14.2141C14.5485 14.2181 14.8861 14.2957 14.8782 14.3007C15.0723 14.3491 15.1078 14.4778 15.1021 14.5792L14.564 16.7355C14.5406 16.7946 14.4802 16.8827 14.3445 16.8493C14.3492 16.8557 14.0678 16.7815 14.0069 16.7654L14.0069 16.7654L13.9962 16.7626L13.7582 17.3106L14.3821 17.4663C14.4499 17.4832 14.5169 17.5007 14.5832 17.5181L14.5833 17.5181C14.6303 17.5304 14.6769 17.5426 14.7232 17.5544L14.5251 18.3504L15.004 18.4698L15.2002 17.6823C15.331 17.7178 15.4576 17.7504 15.5819 17.781L15.3864 18.565L15.8654 18.6843L16.0638 17.8898C16.8803 18.0447 17.4952 17.9823 17.7539 17.2431C17.9621 16.6482 17.7432 16.305 17.3133 16.081C17.6266 16.0093 17.8618 15.8032 17.9251 15.3781ZM16.8306 16.9127C16.6945 17.4583 15.8423 17.2337 15.4507 17.1305L15.4507 17.1305C15.4149 17.1211 15.383 17.1127 15.3558 17.1059L15.6187 16.0512C15.6516 16.0594 15.6918 16.0684 15.7373 16.0787C16.142 16.1694 16.9692 16.3548 16.8306 16.9127ZM15.8177 15.5883C16.1431 15.6753 16.8547 15.8656 16.9784 15.3696C17.1048 14.8617 16.4141 14.7087 16.0765 14.6339C16.0386 14.6254 16.0051 14.618 15.9778 14.6112L15.7397 15.5678C15.762 15.5734 15.7883 15.5805 15.8177 15.5883Z" fill="white"/>
<path fill-rule="evenodd" clip-rule="evenodd" d="M12.7809 19.9935C11.0877 18.6287 10.4392 16.3442 11.1629 14.2933C11.8865 12.2423 13.8251 10.8708 16 10.8708C18.1749 10.8708 20.1134 12.2423 20.8371 14.2933C21.5608 16.3442 20.9123 18.6287 19.219 19.9935C20.1605 20.3328 21.0077 20.8916 21.6902 21.6234C24.7872 18.4895 24.7673 13.4413 21.6457 10.332C18.524 7.22276 13.476 7.22276 10.3542 10.332C7.23262 13.4413 7.21278 18.4895 10.3097 21.6234C10.9923 20.8916 11.8395 20.3328 12.7809 19.9935Z" fill="#ADADAD"/>
<path fill-rule="evenodd" clip-rule="evenodd" d="M21.6752 10.3616C24.7691 13.4757 24.7757 18.5011 21.6902 21.6234C21.0077 20.8915 20.1605 20.3328 19.219 19.9934C20.3501 19.0818 21.0416 17.7331 21.1216 16.2826C21.2016 14.832 20.6627 13.4155 19.6387 12.3848L21.6752 10.3616Z" fill="#696969"/>
<path fill-rule="evenodd" clip-rule="evenodd" d="M12.781 19.9934C12.6307 19.8723 12.4874 19.7429 12.3517 19.6054L10.3098 21.6234C10.9923 20.8915 11.8395 20.3328 12.781 19.9934Z" fill="#696969"/>
<defs>
<linearGradient id="paint0_linear" x1="2.04343" y1="13.297" x2="15.2222" y2="29.5764" gradientUnits="userSpaceOnUse">
<stop stop-color="#004CFF"/>
<stop offset="0.252131" stop-color="#00E0FB"/>
<stop offset="0.505709" stop-color="#87FF70"/>
<stop offset="0.755054" stop-color="#F8F500"/>
<stop offset="1" stop-color="#FF1A00"/>
</linearGradient>
</defs>
</svg>

<svg fill="none" viewBox="0 0 32 32"><path fill="#fff" fill-rule="evenodd" d="M32 16c0-2.094-.417-4.188-1.218-6.123a16.058 16.058 0 00-3.468-5.19 16.051 16.051 0 00-5.191-3.47A16.054 16.054 0 0016 0c-2.094 0-4.188.417-6.123 1.218a16.055 16.055 0 00-5.19 3.468 16.05 16.05 0 00-3.47 5.191A16.049 16.049 0 000 16c0 2.094.416 4.188 1.218 6.123a16.056 16.056 0 003.468 5.19 16.055 16.055 0 005.19 3.469A16.056 16.056 0 0016 32c2.094 0 4.188-.417 6.123-1.218a16.051 16.051 0 005.19-3.468 16.063 16.063 0 003.47-5.191A16.054 16.054 0 0032 16z" clip-rule="evenodd"/><path fill="url(#paint0_linear)" fill-rule="evenodd" d="M11.855 3.384a13.267 13.267 0 0113.213 2.914 13.155 13.155 0 013.417 5.189c.71 1.99.946 4.19.672 6.284a13.194 13.194 0 01-2.243 5.795 13.207 13.207 0 01-4.64 4.134 13.622 13.622 0 01-6.12 1.576 13.207 13.207 0 01-6.059-1.381 13.19 13.19 0 01-4.763-3.991 13.662 13.662 0 01-2.444-5.83 13.13 13.13 0 01.487-6.193 13.392 13.392 0 012.23-4.145H4.12V5.282h5.817v5.431H7.483V9.23a10.961 10.961 0 00-1.827 3.397 10.787 10.787 0 00-.4 5.07 11.107 11.107 0 002.81 5.75 10.952 10.952 0 006.8 3.375 11.023 11.023 0 007.351-1.892 10.999 10.999 0 004.325-6.24c.637-2.5.342-5.237-.807-7.547a10.919 10.919 0 00-5.546-5.183c-2.394-.99-5.181-1.085-7.585-.295l-.75-2.28z" clip-rule="evenodd"/><path fill="#000" fill-rule="evenodd" d="M20.366 16A4.369 4.369 0 0016 11.634 4.369 4.369 0 0011.634 16 4.369 4.369 0 0016 20.366 4.369 4.369 0 0020.366 16z" clip-rule="evenodd"/><path fill="#fff" fill-rule="evenodd" d="M17.925 15.378c.087-.581-.355-.893-.96-1.102l.196-.787-.479-.12-.191.767a17.982 17.982 0 00-.384-.09l.192-.771-.478-.12-.197.787-.084-.02c-.075-.017-.15-.034-.222-.052v-.003l-.66-.165-.127.512c.018.004.355.082.347.087.194.048.23.177.224.278l-.538 2.156c-.023.06-.084.148-.22.114a6.56 6.56 0 01-.337-.084l-.01-.002-.239.548.624.155.201.052.14.036-.198.796.479.12.196-.788c.131.036.258.068.382.099l-.196.784.48.12.198-.795c.816.155 1.431.092 1.69-.647.208-.595-.01-.938-.44-1.162.313-.072.548-.278.611-.703zm-1.094 1.535c-.136.545-.989.32-1.38.218l-.095-.025.263-1.055.118.028c.405.09 1.232.276 1.094.834zm-1.013-1.325c.325.087 1.037.278 1.16-.218.127-.508-.564-.661-.902-.736l-.098-.023-.238.957.078.02z" clip-rule="evenodd"/><path fill="#ADADAD" fill-rule="evenodd" d="M12.78 19.994a5.13 5.13 0 116.439 0 6.3 6.3 0 012.471 1.63 8 8 0 10-11.38 0 6.301 6.301 0 012.47-1.63z" clip-rule="evenodd"/><path fill="#696969" fill-rule="evenodd" d="M21.675 10.362a8 8 0 01.015 11.261 6.3 6.3 0 00-2.471-1.63 5.129 5.129 0 00.42-7.608l2.036-2.023zm-8.894 9.631a5.088 5.088 0 01-.43-.388l-2.041 2.018a6.3 6.3 0 012.471-1.63z" clip-rule="evenodd"/><defs><linearGradient id="paint0_linear" x1="2.043" x2="15.222" y1="13.297" y2="29.576" gradientUnits="userSpaceOnUse"><stop stop-color="#004CFF"/><stop offset=".252" stop-color="#00E0FB"/><stop offset=".506" stop-color="#87FF70"/><stop offset=".755" stop-color="#F8F500"/><stop offset="1" stop-color="#FF1A00"/></linearGradient></defs></svg>
